svgs/sharp-solid/circle-plus.svg

<svg xmlns="http://www.w3.org/2000/svg" viewBox="0 0 512 512"><!--! Font Awesome Pro 6.6.0 by @fontawesome - https://fontawesome.com License - https://fontawesome.com/license (Commercial License) Copyright 2024 Fonticons, Inc. --><path d="M256 512A256 256 0 1 0 256 0a256 256 0 1 0 0 512zM232 368l0-24 0-64-64 0-24 0 0-48 24 0 64 0 0-64 0-24 48 0 0 24 0 64 64 0 24 0 0 48-24 0-64 0 0 64 0 24-48 0z"/></svg>

<svg xmlns="http://www.w3.org/2000/svg" viewBox="0 0 512 512"><!--! Font Awesome Pro 6.5.2 by @fontawesome - https://fontawesome.com License - https://fontawesome.com/license (Commercial License) Copyright 2024 Fonticons, Inc. --><path d="M256 512A256 256 0 1 0 256 0a256 256 0 1 0 0 512zM232 368V344 280H168 144V232h24 64V168 144h48v24 64h64 24v48H344 280v64 24H232z"/></svg>
